outputs/icons/editor/edit_border_round.svg

<svg width="1200" height="1200" viewBox="0 0 1200 1200" fill="none" xmlns="http://www.w3.org/2000/svg"><g clip-path="url(#clip0_238_229)"><path d="M1000 1200.005H200C145 1200.005 100 1155.005 100 1100.005C100 1045.005 145 1000.005 200 1000.005H1000C1055 1000.005 1100 1045.005 1100 1100.005C1100 1155.005 1055 1200.005 1000 1200.005ZM653 259.503L840.5 447.003L402 885.505C393 895.005 380 900.005 367 900.005H250C222.5 900.005 200 877.505 200 850.005V733.005C200 719.505 205.5 707.005 214.5 697.505L653 259.503ZM894 393.503L706.5 206.003L798 114.503C817.5 95.003 849 95.003 868.5 114.503L985.5 231.503C1005 251.003 1005 282.503 985.5 302.003L894 393.503Z" fill="#1D1E23"/></g><defs><clipPath id="clip0_238_229"><path width="24" fill="white" d="M0 0H1200V1200H0V0z"/></clipPath></defs></svg>

<svg xmlns="http://www.w3.org/2000/svg" width="1200" height="1200" fill="none"><g clip-path="url(#a)"><path fill="#000" d="M1000 1200.005H200c-55 0-100-45-100-100s45-100 100-100h800c55 0 100 45 100 100s-45 100-100 100M653 259.503l187.5 187.5L402 885.505c-9 9.5-22 14.5-35 14.5H250c-27.5 0-50-22.5-50-50v-117c0-13.5 5.5-26 14.5-35.5zm241 134-187.5-187.5 91.5-91.5c19.5-19.5 51-19.5 70.5 0l117 117c19.5 19.5 19.5 51 0 70.5z"/></g><defs><clipPath id="a"><path fill="#fff" d="M0 0h1200v1200H0z"/></clipPath></defs></svg>
